images/icons/landing_facebook.svg

<svg xmlns="http://www.w3.org/2000/svg" viewBox="0 0 26 26" enable-background="new 0 0 792 612"><path d="M13 0c-7.2 0-13 5.8-13 13s5.8 13 13 13 13-5.8 13-13-5.8-13-13-13zm4.4 13.3h-2.7v9.8h-3.7v-9.8h-2.5v-3.4h2.5v-2c0-2.8.7-4.4 4-4.4h2.7v3.4h-1.7c-1.3 0-1.3.5-1.3 1.4v1.7h3l-.3 3.3z" fill="#64bcba"/></svg>

<?xml version="1.0" encoding="UTF-8" standalone="no"?>
<!-- Generator: Adobe Illustrator 18.0.0, SVG Export Plug-In . SVG Version: 6.00 Build 0)  -->

<svg
   xmlns:dc="http://purl.org/dc/elements/1.1/"
   xmlns:cc="http://creativecommons.org/ns#"
   xmlns:rdf="http://www.w3.org/1999/02/22-rdf-syntax-ns#"
   xmlns:svg="http://www.w3.org/2000/svg"
   xmlns="http://www.w3.org/2000/svg"
   xmlns:sodipodi="http://sodipodi.sourceforge.net/DTD/sodipodi-0.dtd"
   xmlns:inkscape="http://www.inkscape.org/namespaces/inkscape"
   version="1.1"
   id="Layer_1"
   x="0px"
   y="0px"
   viewBox="0 0 26 26"
   enable-background="new 0 0 792 612"
   xml:space="preserve"
   inkscape:version="0.48.5 r10040"
   width="100%"
   height="100%"
   sodipodi:docname="landing_facebook.svg"><metadata
     id="metadata9"><rdf:RDF><cc:Work
         rdf:about=""><dc:format>image/svg+xml</dc:format><dc:type
           rdf:resource="http://purl.org/dc/dcmitype/StillImage" /></cc:Work></rdf:RDF></metadata><defs
     id="defs7" /><sodipodi:namedview
     pagecolor="#ffffff"
     bordercolor="#666666"
     borderopacity="1"
     objecttolerance="10"
     gridtolerance="10"
     guidetolerance="10"
     inkscape:pageopacity="0"
     inkscape:pageshadow="2"
     inkscape:window-width="640"
     inkscape:window-height="480"
     id="namedview5"
     showgrid="false"
     fit-margin-top="0"
     fit-margin-left="0"
     fit-margin-right="0"
     fit-margin-bottom="0"
     inkscape:zoom="0.38562092"
     inkscape:cx="14"
     inkscape:cy="11.7"
     inkscape:window-x="0"
     inkscape:window-y="0"
     inkscape:window-maximized="0"
     inkscape:current-layer="Layer_1" /><path
     d="M 13,0 C 5.8,0 0,5.8 0,13 0,20.2 5.8,26 13,26 20.2,26 26,20.2 26,13 26,5.8 20.2,0 13,0 z m 4.4,13.3 -2.7,0 0,9.8 H 11 V 13.3 H 8.5 V 9.9 l 2.5,0 0,-2 c 0,-2.8 0.7,-4.4 4,-4.4 h 2.7 V 6.9 H 16 c -1.3,0 -1.3,0.5 -1.3,1.4 l 0,1.7 h 3 l -0.3,3.3 z"
     id="path3"
     inkscape:connector-curvature="0"
     style="fill:#64bcba" /></svg>
